X: 11443
T: Easy Club, The
R: reel
M: 4/4
K: Amajor
|:AEAc BEGB|cEAc eAce|faag a2ea|ceec dcBc|
AEAc BEGB|cEAc eAce|faga efec|1 dBGB A2 E2:|2 dBGB Aaga||
|:faad zaga|eaac zaga|faad zaga|ceeA BdcB|
A2cA BcdB|cdec defg|agae (3fga ec|1 dBGB Aaga:|2 dBGB A2zA||

